assets/svg/icon-ui-key-white.svg

<?xml version="1.0" encoding="UTF-8" standalone="no"?>
<svg width="29px" height="30px" viewBox="0 0 29 30" version="1.1" xmlns="http://www.w3.org/2000/svg" xmlns:xlink="http://www.w3.org/1999/xlink">
    <!-- Generator: Sketch 3.8.3 (29802) - http://www.bohemiancoding.com/sketch -->
    <title>white/icon-ui-key-white</title>
    <desc>Created with Sketch.</desc>
    <defs></defs>
    <g id="white" stroke="none" stroke-width="1" fill="none" fill-rule="evenodd">
        <g id="icons,-utility-white" transform="translate(-911.000000, -369.000000)" fill="#FFFFFF">
            <g id="white/icon-ui-key-white" transform="translate(911.000000, 369.000000)">
                <g id="K">
                    <g id="PaaS">
                        <g id="products">
                            <g id="Products">
                                <g id="BaaS">
                                    <g id="Description">
                                        <g id="Backend">
                                            <g id="Auth">
                                                <path d="M18.0906667,12.6192 C18.3978667,11.7317333 18.5685333,10.776 18.5685333,9.78613333 C18.5685333,4.80266667 14.5066667,0.7408 9.5232,0.7408 C4.53973333,0.7408 0.477866667,4.80266667 0.477866667,9.78613333 C0.477866667,14.7696 4.53973333,18.8314667 9.5232,18.8314667 C10.5130667,18.8314667 11.4688,18.6608 12.3562667,18.3536 L14.4384,20.4357333 L18.1627958,20.4357333 C18.5188377,20.4357333 18.8074667,20.7224 18.8074667,21.0804043 L18.8074667,23.7471708 C18.8074667,24.3312832 19.2750333,24.8048 19.8650958,24.8048 L22.5318624,24.8048 C22.8879044,24.8048 23.1765333,25.0937062 23.1765333,25.4545073 L23.1765333,28.1421082 C23.1765333,28.730784 23.6683552,29.208 24.2345713,29.208 L28.3056924,29.208 C28.658809,29.208 28.9450667,28.931418 28.9450667,28.5501914 L28.9450667,23.4736 L18.0906667,12.6192 L18.0906667,12.6192 Z M7.64586667,10.8784 C5.9392,10.8784 4.57386667,9.51306667 4.57386667,7.84053333 C4.57386667,6.168 5.9392,4.80266667 7.64586667,4.80266667 C9.3184,4.80266667 10.6837333,6.168 10.6837333,7.84053333 C10.6837333,9.51306667 9.3184,10.8784 7.64586667,10.8784 L7.64586667,10.8784 L7.64586667,10.8784 Z" id="K"></path>
                                            </g>
                                        </g>
                                    </g>
                                </g>
                            </g>
                        </g>
                    </g>
                </g>
            </g>
        </g>
    </g>
</svg>

<svg width="29" height="30" viewBox="0 0 29 30" xmlns="http://www.w3.org/2000/svg"><title>white/icon-ui-key-white</title><path d="M18.09 12.62a8.658 8.658 0 0 0 .479-2.834c0-4.983-4.062-9.045-9.046-9.045C4.54.74.478 4.803.478 9.786c0 4.984 4.062 9.045 9.045 9.045.99 0 1.946-.17 2.833-.477l2.082 2.082h3.725c.356 0 .644.286.644.644v2.667c0 .584.468 1.058 1.058 1.058h2.667c.356 0 .645.289.645.65v2.687c0 .589.491 1.066 1.058 1.066h4.07c.354 0 .64-.277.64-.658v-5.076L18.091 12.619zM7.647 10.877c-1.707 0-3.072-1.365-3.072-3.037 0-1.673 1.365-3.038 3.072-3.038a3.045 3.045 0 0 1 3.038 3.038 3.045 3.045 0 0 1-3.038 3.037z" fill="#FFF" fill-rule="evenodd"/></svg>
